X: 12372
T: Famous Ballymote, The
R: reel
M: 4/4
K: Dmixolydian
FDAD FAAB|cABG EFGE|FDAD (3FFG AB|cAGE ED D2:|
FDFA dfed|cABG EFGE|FDFA dfed|cAGE ED D2:|

